src/cyfwms-twn-client/public/img/halfMoon.svg

<svg width="150" height="150" overflow="hidden" version="1.1" xml:space="preserve" xmlns="http://www.w3.org/2000/svg"><defs><clipPath id="clip0"><rect x="835" y="217" width="137" height="143"/></clipPath></defs><g transform="matrix(.75719 0 0 .81413 -607.04 -156.01)" clip-path="url(#clip0)" fill="#ffd966" stroke="#000" stroke-width="8.6333"><path transform="matrix(1,0,0,1.0438,835,217)" d="m67.073 17.838c-5.2802-2.5687-10.703-4.2812-16.126-4.9947 15.698 15.555 20.407 39.958 9.9896 60.936-10.275 20.978-32.823 31.824-54.515 28.827 3.8531 3.853 8.5625 7.278 13.7 9.847 26.116 12.987 57.797 2.284 70.641-23.832 12.844-26.116 2.426-57.654-23.69-70.783z"/><path transform="matrix(1,0,0,1.0438,835,217)" d="m124.01 77.776c-0.286-0.4281-0.286-0.9989 0-1.427l2.711-3.9959c0.285-0.5708 0.285-1.1416 0-1.5698-0.285-0.4281-0.999-0.7135-1.427-0.5708l-4.424 1.1417c-0.571 0.1427-1.142-0.1427-1.427-0.5709l-2.712-3.9958c-0.428-0.5708-0.999-0.7135-1.569-0.5708-0.571 0.1427-0.999 0.7135-0.999 1.2843l-0.286 4.8521c0 0.5709-0.428 0.999-0.999 1.2844l-4.424 0.999c-0.57 0.1427-0.999 0.5708-0.999 1.2843 0 0.5709 0.286 1.1417 0.857 1.2844l1.855 0.999 2.426 1.2843c0.143 0.1427 0.428 0.2855 0.571 0.5709 0.142 0.2854 0.142 0.4281 0.142 0.7135v4.8521c0 0.5708 0.286 1.1417 0.857 1.2844s1.141 0 1.569-0.4282l3.14-3.8531c0.428-0.4281 0.999-0.5708 1.57-0.4281l4.709 1.7125c0.571 0.1427 1.142 0 1.57-0.4281s0.428-1.1417 0.143-1.5698z"/><path transform="matrix(1,0,0,1.0438,835,217)" d="m110.46 42.242 3.853-6.9927c0.429-0.8563 1.285-1.2844 2.284-1.1417l7.849 1.2844c0.999 0.1427 1.855-0.2854 2.283-1.1417s0.285-1.9979-0.285-2.5687l-5.423-5.8511c-0.571-0.5708-0.714-1.5698-0.428-2.426l2.996-7.2782c0.286-0.8562 0.143-1.8552-0.428-2.426s-1.712-0.8562-2.426-0.4281l-6.707 3.2823c-0.856 0.4281-1.855 0.1427-2.426-0.4282l-5.423-5.4229c-0.714-0.71352-1.855-0.85622-2.711-0.5708-0.857 0.4281-1.285 1.4271-1.285 2.2833l0.999 7.5636c0.143 0.9989-0.285 1.8552-1.142 2.2833l-6.7068 3.2823c-0.8563 0.4281-1.2844 1.2844-1.1417 2.2833 0.1427 0.8563 0.8562 1.7125 1.7125 1.8552l3.2823 0.999 4.2817 1.2844c0.428 0.1427 0.713 0.4281 1.141 0.7135 0.286 0.2854 0.428 0.7135 0.571 1.1417l1.284 7.8489c0.143 0.999 0.857 1.7125 1.856 1.8552 0.999 0.1428 1.712-0.4281 2.14-1.2843z"/></g></svg>

<svg width="137" height="143" xmlns="http://www.w3.org/2000/svg" xmlns:xlink="http://www.w3.org/1999/xlink" xml:space="preserve" overflow="hidden"><defs><clipPath id="clip0"><rect x="835" y="217" width="137" height="143"/></clipPath></defs><g clip-path="url(#clip0)" transform="translate(-835 -217)"><path d="M67.0729 17.8385C61.7927 15.2698 56.3698 13.5573 50.9469 12.8438 66.6448 28.399 71.3542 52.8021 60.9365 73.7802 50.6615 94.7583 28.1135 105.604 6.42188 102.607 10.275 106.46 14.9844 109.885 20.1219 112.454 46.2375 125.441 77.9187 114.738 90.7625 88.6219 103.606 62.5063 93.1885 30.9677 67.0729 17.8385Z" stroke="#000000" stroke-width="8.63326" fill="#FFD966" transform="matrix(1 0 0 1.0438 835 217)"/><path d="M124.014 77.776C123.728 77.3479 123.728 76.7771 124.014 76.349L126.725 72.3531C127.01 71.7823 127.01 71.2115 126.725 70.7833 126.44 70.3552 125.726 70.0698 125.298 70.2125L120.874 71.3542C120.303 71.4969 119.732 71.2115 119.447 70.7833L116.735 66.7875C116.307 66.2167 115.736 66.074 115.166 66.2167 114.595 66.3594 114.167 66.9302 114.167 67.501L113.881 72.3531C113.881 72.924 113.453 73.3521 112.882 73.6375L108.458 74.6365C107.888 74.7792 107.459 75.2073 107.459 75.9208 107.459 76.4917 107.745 77.0625 108.316 77.2052L110.171 78.2042 112.597 79.4885C112.74 79.6312 113.025 79.774 113.168 80.0594 113.31 80.3448 113.31 80.4875 113.31 80.7729L113.31 85.625C113.31 86.1958 113.596 86.7667 114.167 86.9094 114.738 87.0521 115.308 86.9094 115.736 86.4812L118.876 82.6281C119.304 82.2 119.875 82.0573 120.446 82.2L125.155 83.9125C125.726 84.0552 126.297 83.9125 126.725 83.4844 127.153 83.0563 127.153 82.3427 126.868 81.9146L124.014 77.776Z" stroke="#000000" stroke-width="8.63326" fill="#FFD966" transform="matrix(1 0 0 1.0438 835 217)"/><path d="M110.456 42.2417 114.309 35.249C114.738 34.3927 115.594 33.9646 116.593 34.1073L124.442 35.3917C125.441 35.5344 126.297 35.1063 126.725 34.25 127.153 33.3937 127.01 32.2521 126.44 31.6813L121.017 25.8302C120.446 25.2594 120.303 24.2604 120.589 23.4042L123.585 16.126C123.871 15.2698 123.728 14.2708 123.157 13.7 122.586 13.1292 121.445 12.8438 120.731 13.2719L114.024 16.5542C113.168 16.9823 112.169 16.6969 111.598 16.126L106.175 10.7031C105.461 9.98958 104.32 9.84688 103.464 10.1323 102.607 10.5604 102.179 11.5594 102.179 12.4156L103.178 19.9792C103.321 20.9781 102.893 21.8344 102.036 22.2625L95.3292 25.5448C94.4729 25.9729 94.0448 26.8292 94.1875 27.8281 94.3302 28.6844 95.0437 29.5406 95.9 29.6833L99.1823 30.6823 103.464 31.9667C103.892 32.1094 104.177 32.3948 104.605 32.6802 104.891 32.9656 105.033 33.3937 105.176 33.8219L106.46 41.6708C106.603 42.6698 107.317 43.3833 108.316 43.526 109.315 43.6688 110.028 43.0979 110.456 42.2417Z" stroke="#000000" stroke-width="8.63326" fill="#FFD966" transform="matrix(1 0 0 1.0438 835 217)"/></g></svg>
